X:507
T:Reel 507
L:1/8
M: 4/4
K: G Major
e3fg3e|dBGABAA/A/A|e2edefge|dBAcBGG2:|BAGBdedB|AcBAGEE2|BAG/A/BdBGB|A/B/AGABGG2:|.abc